X: 11728
T: Elbow Room
R: reel
M: 4/4
K: Dminor
|:DE|FDA,D GDA,D|FDA,D GDFD|B,DFD B,DED|B,DFD (B,E3)|
FDA,D GDA,D|FDA,D GDFD|(3ABA GA FAEA|CDDC D2:|
|:Ac|dD (3DDD cDGA|dD (3DDD cA G2|(3A=Bc Bc AB (3cBA|GECD EFGc|
dD (3DDD cDGA|dD (3DDD cA G2|(3A=Bc Bc AB (3cBA|GECE D2:|

